<?xml version="1.0" encoding="UTF-8"?>
<map version="1.10" tiledversion="1.10.2" orientation="orthogonal" renderorder="right-down" width="30" height="20" tilewidth="16" tileheight="16" infinite="0" nextlayerid="7" nextobjectid="1">
 <tileset firstgid="1" source="castle_outdoors.tsx"/>
 <layer id="1" name="Tile Layer 1" width="30" height="20">
  <data encoding="csv">
353,353,353,353,353,353,354,353,353,353,353,353,353,322,353,353,321,353,353,353,353,353,353,353,353,353,353,353,353,321,
353,353,231,231,231,353,353,353,353,353,231,231,231,353,353,353,353,353,353,353,353,354,354,353,353,353,353,354,353,353,
353,353,231,231,231,354,353,353,354,353,232,230,231,353,353,353,353,353,353,353,353,353,353,321,353,353,353,353,353,353,
353,322,353,353,353,353,353,353,353,353,231,231,230,353,353,353,353,353,353,353,353,353,353,353,353,353,353,230,232,231,
231,231,230,231,231,231,231,231,264,232,231,232,353,353,230,231,231,231,353,353,231,231,231,353,353,353,353,231,230,230,
231,230,138,2,140,231,232,232,432,231,353,353,353,353,230,264,231,232,353,353,231,231,231,353,353,353,353,231,230,231,
232,264,138,2,140,230,231,430,431,432,231,231,231,232,231,231,230,231,231,232,353,353,353,353,321,354,353,353,353,353,
232,430,399,231,232,231,231,230,264,432,294,295,295,295,295,295,295,295,295,231,231,353,295,295,295,295,295,295,353,353,
231,231,431,431,232,231,231,264,232,264,358,359,359,359,359,359,359,359,359,231,231,322,231,359,359,359,359,231,353,353,
322,353,353,322,353,353,353,232,264,263,230,231,230,231,231,231,231,232,231,232,170,353,353,353,353,353,353,353,353,354,
353,353,353,354,353,321,353,231,232,230,353,353,353,353,353,353,353,353,353,353,353,353,353,353,230,231,353,354,322,353,
353,353,353,353,353,321,322,353,353,353,353,353,353,353,353,353,353,353,353,353,353,353,353,321,231,232,353,353,353,353,
353,353,353,353,353,353,353,353,354,353,353,353,353,353,353,353,353,353,353,353,353,321,353,353,232,230,353,353,353,353,
322,353,353,353,353,353,353,321,354,353,321,354,353,353,354,353,353,321,353,353,353,353,612,675,231,231,641,353,353,353,
353,353,353,353,353,353,321,353,353,353,353,353,353,353,353,353,353,321,353,353,353,353,643,614,232,231,673,613,322,353,
353,353,353,353,353,353,353,353,353,353,353,354,353,353,353,353,353,321,353,353,353,322,643,646,230,262,646,673,613,353,
353,321,353,353,354,353,322,353,353,353,353,353,353,353,353,321,353,353,353,322,354,353,644,611,231,647,646,615,673,613,
353,353,321,353,353,353,353,353,353,353,353,353,353,353,353,353,353,353,353,353,322,353,353,353,432,230,646,646,646,641,
353,353,321,353,353,353,353,353,354,321,353,322,353,353,353,353,354,322,353,353,353,353,321,353,431,432,614,646,609,645,
353,353,353,353,353,353,353,322,353,353,353,353,353,353,353,353,321,353,353,354,353,353,322,353,434,431,610,610,645,353
</data>
 </layer>
 <layer id="2" name="Tile Layer 2" width="30" height="20">
  <data encoding="csv">
0,0,10,11,12,0,0,0,0,297,298,299,300,301,0,0,0,0,0,0,0,0,0,0,0,0,0,0,0,0,
0,0,42,43,44,0,0,0,0,329,330,331,332,333,0,0,0,0,0,0,0,0,0,0,0,0,0,0,0,0,
0,0,106,69,108,0,0,0,0,361,362,363,364,365,0,0,0,0,0,0,0,0,0,0,0,0,0,0,0,0,
5,6,138,2,140,4,5,5,5,5,394,395,396,397,4,5,5,6,0,0,0,0,0,0,0,0,0,0,0,0,
37,38,170,16,172,36,37,37,37,37,426,427,428,429,36,37,37,38,0,0,0,0,0,0,0,0,0,0,0,0,
0,38,0,0,0,36,0,0,0,0,170,8,172,5,134,75,75,132,5,5,0,0,0,0,0,0,0,0,0,0,
0,132,5,5,5,134,0,0,0,0,202,40,204,0,0,0,0,0,0,0,170,16,172,5,5,5,5,170,16,172,
0,0,0,0,0,0,0,0,0,0,0,0,0,0,0,0,0,0,0,0,170,171,172,0,0,0,0,170,171,172,
107,228,107,107,107,107,107,102,37,0,0,0,0,0,0,0,0,0,0,0,170,226,172,81,82,83,85,85,171,172,
257,323,259,139,195,139,139,74,75,100,69,69,228,69,69,69,69,69,69,69,234,15,236,113,242,244,117,117,0,172,
171,267,167,168,226,165,165,106,107,108,130,226,323,226,130,195,226,130,161,194,170,47,172,145,274,276,149,149,15,172,
289,291,199,200,290,197,197,138,15,140,257,258,258,323,259,193,194,129,130,163,138,226,172,177,306,308,181,181,47,172,
0,0,0,0,0,0,0,170,47,172,289,290,290,290,290,291,289,291,16,66,234,323,236,209,338,340,213,213,171,172,
0,0,0,0,0,0,0,202,203,204,0,0,0,0,0,0,0,0,0,0,202,290,204,0,0,0,0,202,203,204,
0,0,0,0,0,0,0,0,0,0,0,0,0,0,0,0,0,0,0,0,0,0,0,0,0,0,0,0,0,0,
0,0,0,0,0,0,0,0,0,0,0,0,0,0,0,0,0,0,0,0,0,0,0,22,23,0,0,0,0,0,
0,0,0,0,0,0,0,0,0,0,0,0,0,0,20,20,21,20,20,20,20,20,21,54,55,0,0,0,0,0,
0,0,0,0,0,0,0,0,0,0,0,0,0,0,52,52,53,52,52,52,52,52,53,86,0,0,0,0,0,0,
0,0,0,0,0,0,0,0,0,0,0,0,0,0,0,0,0,0,0,0,0,0,0,0,0,0,0,0,0,0,
0,0,0,0,0,0,0,0,0,0,0,0,0,0,0,0,0,0,0,0,0,0,0,0,0,0,0,0,0,0
</data>
 </layer>
 <layer id="3" name="Tile Layer 3" width="30" height="20">
  <data encoding="csv">
0,0,0,0,0,0,0,0,0,297,298,299,300,301,0,0,0,0,0,0,0,0,0,0,0,0,0,0,0,0,
0,0,0,0,0,0,0,0,0,329,330,331,332,333,0,0,0,0,0,0,0,0,0,0,0,0,0,0,0,0,
0,0,0,0,0,0,0,0,0,361,362,363,364,365,0,0,0,0,0,557,558,559,560,561,0,0,0,298,299,300,
0,0,0,0,0,0,0,0,0,393,394,395,396,397,0,0,0,0,0,589,590,591,592,593,0,0,329,330,331,332,
0,0,0,0,0,0,0,0,0,425,426,427,428,429,0,0,0,0,0,621,622,623,624,625,0,0,361,362,363,364,
0,0,0,0,0,0,0,0,0,0,0,0,0,0,0,0,0,0,0,653,654,655,656,657,517,0,393,394,395,396,
0,0,0,0,0,0,0,0,0,0,0,0,0,0,0,0,0,0,0,685,686,687,688,689,549,550,425,426,427,428,
0,0,0,0,0,0,0,0,0,0,0,0,0,0,0,0,0,0,0,0,138,0,0,0,581,582,0,138,0,0,
0,0,0,0,0,0,0,0,0,0,0,0,0,0,0,0,0,0,0,0,138,0,0,0,0,0,0,138,0,0,
0,0,0,0,0,0,0,0,0,0,0,0,0,0,0,0,0,0,0,0,138,0,0,112,0,0,112,138,267,0,
0,0,0,0,0,0,0,0,0,0,112,0,0,0,0,0,0,0,0,112,270,271,272,144,0,0,144,138,0,0,
0,0,0,0,0,0,0,0,0,0,144,0,0,0,0,0,0,0,0,144,302,303,304,176,0,0,176,138,0,0,
0,0,0,0,0,0,0,0,0,0,176,0,386,387,0,0,0,0,0,176,334,335,336,0,0,0,0,138,0,0,
0,0,0,0,0,0,0,0,0,0,0,0,418,419,0,0,0,0,0,0,266,0,268,0,0,0,0,0,0,0,
0,0,0,0,0,0,0,0,0,0,0,0,0,0,0,0,0,0,0,0,0,0,0,0,0,0,0,0,0,0,
0,0,0,0,0,0,0,0,0,0,0,0,0,0,0,0,0,0,0,0,0,0,0,0,0,0,0,0,0,0,
0,0,0,0,0,0,0,0,0,0,0,0,0,0,0,0,0,0,0,0,0,0,0,0,0,0,0,0,0,0,
0,0,0,0,0,0,0,0,0,0,0,0,0,0,0,0,0,0,0,0,0,0,0,0,0,0,0,0,0,0,
0,0,0,0,0,0,0,0,0,0,0,0,0,0,0,0,0,0,0,0,0,0,0,0,0,0,0,0,0,0,
0,0,0,0,0,0,0,0,0,0,0,0,0,0,0,0,0,0,0,0,0,0,0,0,0,0,0,0,0,0
</data>
 </layer>
 <layer id="4" name="Tile Layer 4" width="30" height="20">
  <data encoding="csv">
0,0,0,0,0,0,0,0,0,0,0,0,0,0,0,0,0,0,0,0,0,628,629,630,0,0,0,0,0,0,
0,0,0,0,0,0,0,0,0,0,0,0,0,0,0,0,0,0,0,0,0,660,661,662,0,0,0,0,0,0,
0,0,0,0,0,0,0,0,0,0,0,0,0,0,0,0,0,0,0,0,0,596,0,0,0,0,0,0,0,0,
0,0,0,0,0,0,0,454,0,0,0,0,0,0,0,0,456,457,0,0,0,0,0,0,0,0,0,0,0,0,
0,0,0,0,0,0,0,486,0,0,0,0,0,0,0,0,488,489,0,0,0,0,0,0,0,0,0,0,0,0,
0,0,0,0,0,0,0,0,0,0,0,0,0,552,553,0,0,0,0,0,0,0,0,0,0,0,0,0,0,0,
0,0,0,0,0,0,0,0,0,0,0,0,0,584,585,0,0,0,0,0,0,112,0,0,0,0,0,0,112,0,
0,0,0,0,0,453,0,0,0,0,0,0,0,0,0,0,0,0,0,0,0,144,0,0,0,0,0,0,144,0,
0,0,0,0,0,485,0,0,0,0,0,0,0,0,0,0,0,0,0,0,0,176,0,0,0,0,0,0,176,0,
0,0,0,0,0,0,0,0,0,0,0,0,0,0,0,0,0,0,0,0,0,0,0,0,0,0,0,0,0,0,
0,0,0,0,0,0,0,0,0,0,0,0,0,0,0,0,0,0,0,0,0,0,0,0,0,0,0,0,0,0,
0,386,387,386,387,0,0,0,0,0,0,245,0,0,0,248,0,0,0,0,0,0,0,0,0,0,0,0,0,0,
0,418,419,418,419,0,385,0,0,0,0,277,0,0,0,280,282,282,0,0,0,0,0,0,0,0,0,0,0,0,
0,0,0,0,0,0,0,0,0,0,385,310,279,0,385,314,313,314,0,0,386,387,378,379,0,0,378,379,386,387,
0,0,0,0,0,0,0,0,0,0,0,342,311,0,0,0,314,0,0,0,418,419,410,411,0,0,410,411,418,419,
0,0,0,0,0,0,0,0,0,0,0,0,0,0,0,0,0,0,0,0,0,0,442,443,0,0,442,443,0,0,
0,0,0,0,0,0,0,0,0,0,0,0,0,0,0,0,0,0,0,0,0,0,0,0,0,0,0,0,0,0,
0,0,0,0,0,0,0,0,0,0,0,0,0,0,0,0,0,0,0,0,0,0,0,0,0,0,0,0,0,0,
0,0,0,0,0,0,0,0,0,0,0,0,0,0,0,0,0,0,0,0,0,0,0,0,0,0,0,0,0,0,
0,0,0,0,0,0,0,0,0,0,0,0,0,0,0,0,0,0,0,0,0,0,0,0,0,0,0,0,0,0
</data>
 </layer>
 <layer id="6" name="Tile Layer 5" width="30" height="20">
  <data encoding="csv">
0,0,0,0,0,0,0,0,0,0,0,0,0,0,0,0,0,0,0,0,0,0,0,0,0,0,0,0,0,0,
0,0,0,0,0,0,0,0,0,0,0,0,0,0,0,0,0,0,0,0,0,0,0,0,0,0,0,0,0,0,
0,0,0,0,0,0,0,0,0,0,0,0,0,0,0,0,0,0,0,0,0,0,0,0,0,0,0,0,0,0,
0,0,0,0,0,0,0,0,0,0,0,0,0,0,0,0,0,0,0,0,0,0,0,0,0,0,0,0,0,0,
0,0,0,0,0,0,0,0,0,0,0,0,0,0,0,0,0,0,0,0,0,0,0,0,0,0,0,0,0,0,
0,0,0,0,0,0,0,0,0,0,0,0,0,0,0,0,0,0,0,0,0,0,0,0,0,0,0,0,0,0,
0,0,0,0,0,0,0,0,0,0,0,0,0,0,0,0,0,0,0,10,0,0,0,0,0,0,0,0,0,0,
0,0,0,0,0,0,0,0,0,0,0,0,0,0,0,0,0,0,0,42,0,0,0,0,0,0,0,0,0,0,
0,0,0,0,0,0,0,0,0,0,0,0,0,0,0,0,0,0,0,106,0,0,0,0,0,0,0,0,0,0,
0,0,0,0,0,0,0,0,0,0,0,0,0,0,0,0,0,0,0,202,0,0,0,0,0,0,0,0,0,0,
0,0,0,0,0,0,0,0,0,0,0,0,0,0,0,0,0,0,0,0,0,0,0,0,0,0,0,0,0,0,
0,0,0,0,0,0,0,0,0,0,0,0,0,0,0,0,0,0,0,0,0,0,0,0,0,0,0,0,0,0,
0,0,0,0,0,0,0,0,0,0,0,0,0,0,0,0,0,0,0,0,0,0,0,0,0,0,0,0,0,0,
0,0,0,0,0,0,0,0,0,0,0,0,0,0,0,0,0,0,0,0,0,0,0,0,0,0,0,0,0,0,
0,0,0,0,0,0,0,0,0,0,0,0,0,0,0,0,0,0,0,0,0,0,0,0,0,0,0,0,0,0,
0,0,0,0,0,0,0,0,0,0,0,0,0,0,822,823,824,0,0,0,0,0,0,0,0,0,0,0,0,0,
0,0,0,0,0,0,0,0,0,0,0,0,0,0,854,855,856,0,0,0,0,0,0,0,0,0,0,0,0,0,
0,0,0,0,0,0,0,0,0,0,0,0,0,0,886,887,888,0,0,0,0,0,0,0,0,0,0,0,0,0,
0,0,0,0,0,0,0,0,0,0,0,0,0,0,0,0,0,0,0,0,0,0,0,0,0,0,0,0,0,0,
0,0,0,0,0,0,0,0,0,0,0,0,0,0,0,0,0,0,0,0,0,0,0,0,0,0,0,0,0,0
</data>
 </layer>
</map>
